_includes/icons/color-delivery.svg

<svg fill="#666" height="50" viewBox="0 0 48 48" width="50" xmlns="http://www.w3.org/2000/svg"><path d="m42 36h-14v-20c0-1.101562.898438-2 2-2h8c.601563 0 1.199219.300781 1.601563.800781l6 7.699219c.296875.398438.398437.800781.398437 1.199219v8.300781c0 2.199219-1.800781 4-4 4z" fill="#ffc107"/><path d="m6 36h22v-24c0-2.199219-1.800781-4-4-4h-17c-2.800781 0-5 2.199219-5 5v19c0 2.199219 1.800781 4 4 4z" fill="#9575cd"/><path d="m42 36c0 2.761719-2.238281 5-5 5s-5-2.238281-5-5 2.238281-5 5-5 5 2.238281 5 5z" fill="#37474f"/><path d="m19 36c0 2.761719-2.238281 5-5 5s-5-2.238281-5-5 2.238281-5 5-5 5 2.238281 5 5z" fill="#37474f"/><path d="m39.5 36c0 1.378906-1.121094 2.5-2.5 2.5s-2.5-1.121094-2.5-2.5 1.121094-2.5 2.5-2.5 2.5 1.121094 2.5 2.5z" fill="#78909c"/><path d="m16.5 36c0 1.378906-1.121094 2.5-2.5 2.5s-2.5-1.121094-2.5-2.5 1.121094-2.5 2.5-2.5 2.5 1.121094 2.5 2.5z" fill="#78909c"/><path d="m42 26h-3.601562c-.296875 0-.5-.101562-.699219-.300781l-1.398438-1.398438c-.199218-.199218-.402343-.300781-.699218-.300781h-3.601563c-.601562 0-1-.398437-1-1v-6c0-.601562.398438-1 1-1h5.5c.300781 0 .601563.101563.800781.398438l4.5 5.402343c.097657.199219.199219.398438.199219.597657v2.601562c0 .601563-.398437 1-1 1z" fill="#455a64"/><path d="m15 11c-5 0-9 4-9 9s4 9 9 9 9-4 9-9-4-9-9-9zm0 10c-.601562 0-1-.398437-1-1 0-.601562.398438-1 1-1 .601563 0 1 .398438 1 1 0 .601563-.398437 1-1 1z" fill="#fff"/><path d="m16.898438 20.5c0-.199219.101562-.300781.101562-.5 0-.699219-.398437-1.398437-1-1.699219v-5.300781h-2v5.300781c-.601562.300782-1 1-1 1.699219 0 1.101563.898438 2 2 2 .199219 0 .300781 0 .5-.101562l2.300781 2.300781 1.398438-1.398438zm-1.898438.5c-.601562 0-1-.398437-1-1 0-.601562.398438-1 1-1 .601563 0 1 .398438 1 1 0 .601563-.398437 1-1 1z" fill="#37474f"/></svg>

<svg xmlns="http://www.w3.org/2000/svg" viewBox="0 0 48 48" width="50" height="50" fill="#666"><path d="M 42 36 L 28 36 L 28 16 C 28 14.898438 28.898438 14 30 14 L 38 14 C 38.601563 14 39.199219 14.300781 39.601563 14.800781 L 45.601563 22.5 C 45.898438 22.898438 46 23.300781 46 23.699219 L 46 32 C 46 34.199219 44.199219 36 42 36 Z" fill="#ffc107"/><path d="M 6 36 L 28 36 L 28 12 C 28 9.800781 26.199219 8 24 8 L 7 8 C 4.199219 8 2 10.199219 2 13 L 2 32 C 2 34.199219 3.800781 36 6 36 Z" fill="#9575cd"/><path d="M 42 36 C 42 38.761719 39.761719 41 37 41 C 34.238281 41 32 38.761719 32 36 C 32 33.238281 34.238281 31 37 31 C 39.761719 31 42 33.238281 42 36 Z" fill="#37474f"/><path d="M 19 36 C 19 38.761719 16.761719 41 14 41 C 11.238281 41 9 38.761719 9 36 C 9 33.238281 11.238281 31 14 31 C 16.761719 31 19 33.238281 19 36 Z" fill="#37474f"/><path d="M 39.5 36 C 39.5 37.378906 38.378906 38.5 37 38.5 C 35.621094 38.5 34.5 37.378906 34.5 36 C 34.5 34.621094 35.621094 33.5 37 33.5 C 38.378906 33.5 39.5 34.621094 39.5 36 Z" fill="#78909c"/><path d="M 16.5 36 C 16.5 37.378906 15.378906 38.5 14 38.5 C 12.621094 38.5 11.5 37.378906 11.5 36 C 11.5 34.621094 12.621094 33.5 14 33.5 C 15.378906 33.5 16.5 34.621094 16.5 36 Z" fill="#78909c"/><path d="M 42 26 L 38.398438 26 C 38.101563 26 37.898438 25.898438 37.699219 25.699219 L 36.300781 24.300781 C 36.101563 24.101563 35.898438 24 35.601563 24 L 32 24 C 31.398438 24 31 23.601563 31 23 L 31 17 C 31 16.398438 31.398438 16 32 16 L 37.5 16 C 37.800781 16 38.101563 16.101563 38.300781 16.398438 L 42.800781 21.800781 C 42.898438 22 43 22.199219 43 22.398438 L 43 25 C 43 25.601563 42.601563 26 42 26 Z" fill="#455a64"/><path d="M 15 11 C 10 11 6 15 6 20 C 6 25 10 29 15 29 C 20 29 24 25 24 20 C 24 15 20 11 15 11 Z M 15 21 C 14.398438 21 14 20.601563 14 20 C 14 19.398438 14.398438 19 15 19 C 15.601563 19 16 19.398438 16 20 C 16 20.601563 15.601563 21 15 21 Z" fill="#fff"/><path d="M 16.898438 20.5 C 16.898438 20.300781 17 20.199219 17 20 C 17 19.300781 16.601563 18.601563 16 18.300781 L 16 13 L 14 13 L 14 18.300781 C 13.398438 18.601563 13 19.300781 13 20 C 13 21.101563 13.898438 22 15 22 C 15.199219 22 15.300781 22 15.5 21.898438 L 17.800781 24.199219 L 19.199219 22.800781 Z M 15 21 C 14.398438 21 14 20.601563 14 20 C 14 19.398438 14.398438 19 15 19 C 15.601563 19 16 19.398438 16 20 C 16 20.601563 15.601563 21 15 21 Z" fill="#37474f"/></svg>
